X: 15966
T: Grant's Rant
R: hornpipe
M: 4/4
K: Dmajor
|:FG|A3 B AFDF|AFdB AFDF|GBGE FAFD|E2 EE E3 A|
FDFA d3 f|edcB A2 Bc|d2 cB c2 B2|A2 AA A2:|
|:cd|e3 f ecAc|ecaf ecAc|dfdB cec^A|B2 BB B2 Bc|
d3 B AFDF|GABc d2 cB|A2 GF EGFE|D2 DD D2:|

